X: 36
T:Polca Rhyd-y-car
T:The Rhyd-y-car Polka
M:2/4
L:1/8
Q:220
S:Cadw Twmpath Collection
R:Polka
A:Wales
Z:brian_martin12345@yahoo.com
K:G
dg Bd|G/F/G/A/B2|ce dB|A/G/A/B/ AB/c/|
dg Bd|G/F/G/A/B2|c/B/c/e/ dB|A/G/A/B/G2:||
AB cd|ABc2|AB c^c|d^cd2|
dg Bd|G/F/G/A/B2|c/B/c/e/ dB|A/G/A/B/G2:||
